images/logo.svg

<svg width="924" height="177" viewBox="0 0 924 177" fill="none" xmlns="http://www.w3.org/2000/svg">
<path d="M216.092 117.138C216.092 154.154 238.892 176.308 272.769 176.308C289.662 176.308 303.877 171.6 311.815 159.231V176.308H342.738V0H310.615V74.9539C303.323 62.5846 289.846 57.0462 272.954 57.0462C239.908 56.9538 216.092 79.5692 216.092 117.138ZM311.631 117.138C311.631 138.277 297.231 151.477 279.969 151.477C262.062 151.477 248.308 138.277 248.308 117.138C248.308 95.6308 262.154 82.1538 279.969 82.1538C297.231 82.1538 311.631 95.8154 311.631 117.138ZM442.708 130.8C439.015 144.462 429.692 151.292 415.015 151.292C397.938 151.292 383.908 140.954 383.538 122.677H464.492C465.508 118.154 465.969 113.354 465.969 108.092C465.969 75.3231 443.631 56.8615 410.677 56.8615C375.508 56.8615 351.323 81.8769 351.323 115.846C351.323 153.692 378 176.4 414.923 176.4C442.8 176.4 461.723 164.769 470.031 141.6L442.708 130.8ZM383.538 101.262C386.585 88.0615 397.569 80.3077 410.769 80.3077C425.169 80.3077 434.954 88.0615 434.954 100.246L434.769 101.262H383.538ZM561.877 130.8C558.185 144.462 548.862 151.292 534.185 151.292C517.108 151.292 503.077 140.954 502.708 122.677H583.662C584.677 118.154 585.138 113.354 585.138 108.092C585.138 75.3231 562.8 56.8615 529.846 56.8615C494.677 56.8615 470.492 81.8769 470.492 115.846C470.492 153.692 497.169 176.4 534.092 176.4C561.969 176.4 580.892 164.769 589.2 141.6L561.877 130.8ZM502.708 101.262C505.754 88.0615 516.738 80.3077 529.938 80.3077C544.338 80.3077 554.123 88.0615 554.123 100.246L553.938 101.262H502.708ZM698.492 176.492V147.415H631.015L696.646 83.5385V56.9539H592.8V84.6462H656.215L590.769 148.8V176.492H698.492ZM792.369 130.8C788.677 144.462 779.354 151.292 764.677 151.292C747.6 151.292 733.569 140.954 733.2 122.677H814.154C815.169 118.154 815.631 113.354 815.631 108.092C815.631 75.3231 793.292 56.8615 760.338 56.8615C725.169 56.8615 700.985 81.8769 700.985 115.846C700.985 153.692 727.662 176.4 764.585 176.4C792.462 176.4 811.385 164.769 819.692 141.6L792.369 130.8ZM733.2 101.262C736.246 88.0615 747.231 80.3077 760.431 80.3077C774.831 80.3077 784.615 88.0615 784.615 100.246L784.431 101.262H733.2Z" fill="black"/>
<path fill-rule="evenodd" clip-rule="evenodd" d="M143.538 56.9538H183.138V80.1231H143.538V56.9538Z" fill="#40AB5D"/>
<path fill-rule="evenodd" clip-rule="evenodd" d="M143.538 89.0769H183.138V112.246H143.538V89.0769Z" fill="url(#paint0_linear_1_4)"/>
<path fill-rule="evenodd" clip-rule="evenodd" d="M143.538 121.2H183.138V144.369H143.538V121.2Z" fill="url(#paint1_linear_1_4)"/>
<path fill-rule="evenodd" clip-rule="evenodd" d="M0 153.323H39.6V176.492H0V153.323Z" fill="url(#paint2_linear_1_4)"/>
<path fill-rule="evenodd" clip-rule="evenodd" d="M47.8154 153.323H87.4154V176.492H47.8154V153.323Z" fill="url(#paint3_linear_1_4)"/>
<path fill-rule="evenodd" clip-rule="evenodd" d="M95.7231 153.323H135.323V176.492H95.7231V153.323Z" fill="url(#paint4_linear_1_4)"/>
<path fill-rule="evenodd" clip-rule="evenodd" d="M143.538 153.323H183.138V176.492H143.538V153.323Z" fill="url(#paint5_linear_1_4)"/>
<path fill-rule="evenodd" clip-rule="evenodd" d="M95.7231 121.2H135.323V144.369H95.7231V121.2Z" fill="url(#paint6_linear_1_4)"/>
<path fill-rule="evenodd" clip-rule="evenodd" d="M47.8154 121.2H87.4154V144.369H47.8154V121.2Z" fill="url(#paint7_linear_1_4)"/>
<path fill-rule="evenodd" clip-rule="evenodd" d="M47.8154 89.0769H87.4154V112.246H47.8154V89.0769Z" fill="url(#paint8_linear_1_4)"/>
<path d="M891.785 98.2154V101.631H923.077V92.4923C923.077 72 910.246 57.1385 888.738 57.1385C874.892 57.1385 865.108 63.8769 860.031 75.0462V57.1385H827.723V176.492H860.031V99.6C860.031 87.4154 866.585 80.6769 876.646 80.6769C885.877 80.7692 891.785 89.4462 891.785 98.2154Z" fill="black"/>
<defs>
<linearGradient id="paint0_linear_1_4" x1="163.533" y1="112.446" x2="163.159" y2="88.7362" gradientUnits="userSpaceOnUse">
<stop stop-color="#358C7B"/>
<stop offset="0.526" stop-color="#33A65E"/>
</linearGradient>
<linearGradient id="paint1_linear_1_4" x1="142.956" y1="143.18" x2="183.739" y2="122.4" gradientUnits="userSpaceOnUse">
<stop stop-color="#222B90"/>
<stop offset="1" stop-color="#367B99"/>
</linearGradient>
<linearGradient id="paint2_linear_1_4" x1="0.00670375" y1="164.916" x2="39.5736" y2="164.916" gradientUnits="userSpaceOnUse">
<stop stop-color="#FF9900"/>
<stop offset="1" stop-color="#FF8000"/>
</linearGradient>
<linearGradient id="paint3_linear_1_4" x1="47.8589" y1="164.916" x2="87.4258" y2="164.916" gradientUnits="userSpaceOnUse">
<stop stop-color="#FF8000"/>
<stop offset="1" stop-color="#CC1953"/>
</linearGradient>
<linearGradient id="paint4_linear_1_4" x1="95.7112" y1="164.916" x2="135.278" y2="164.916" gradientUnits="userSpaceOnUse">
<stop stop-color="#CC1953"/>
<stop offset="1" stop-color="#241284"/>
</linearGradient>
<linearGradient id="paint5_linear_1_4" x1="143.516" y1="164.916" x2="183.083" y2="164.916" gradientUnits="userSpaceOnUse">
<stop stop-color="#222B90"/>
<stop offset="1" stop-color="#3559A6"/>
</linearGradient>
<linearGradient id="paint6_linear_1_4" x1="94.1505" y1="139.032" x2="136.84" y2="126.548" gradientUnits="userSpaceOnUse">
<stop stop-color="#CC1953"/>
<stop offset="1" stop-color="#241284"/>
</linearGradient>
<linearGradient id="paint7_linear_1_4" x1="46.4504" y1="125.077" x2="88.8343" y2="140.503" gradientUnits="userSpaceOnUse">
<stop offset="0.003" stop-color="#FFCC00"/>
<stop offset="1" stop-color="#CE1938"/>
</linearGradient>
<linearGradient id="paint8_linear_1_4" x1="51.1849" y1="85.4762" x2="84.0998" y2="115.85" gradientUnits="userSpaceOnUse">
<stop offset="0.003" stop-color="#FFD100"/>
<stop offset="1" stop-color="#FD5A22"/>
</linearGradient>
</defs>
</svg>

<svg xmlns="http://www.w3.org/2000/svg" width="924" height="177" fill="none"><path fill="#000" d="M216.092 117.138c0 37.016 22.8 59.17 56.677 59.17 16.893 0 31.108-4.708 39.046-17.077v17.077h30.923V0h-32.123v74.954c-7.292-12.37-20.769-17.908-37.661-17.908-33.046-.092-56.862 22.523-56.862 60.092Zm95.539 0c0 21.139-14.4 34.339-31.662 34.339-17.907 0-31.661-13.2-31.661-34.339 0-21.507 13.846-34.984 31.661-34.984 17.262 0 31.662 13.661 31.662 34.984ZM442.708 130.8c-3.693 13.662-13.016 20.492-27.693 20.492-17.077 0-31.107-10.338-31.477-28.615h80.954c1.016-4.523 1.477-9.323 1.477-14.585 0-32.769-22.338-51.23-55.292-51.23-35.169 0-59.354 25.015-59.354 58.984 0 37.846 26.677 60.554 63.6 60.554 27.877 0 46.8-11.631 55.108-34.8l-27.323-10.8Zm-59.17-29.538c3.047-13.2 14.031-20.954 27.231-20.954 14.4 0 24.185 7.753 24.185 19.938l-.185 1.016h-51.231ZM561.877 130.8c-3.692 13.662-13.015 20.492-27.692 20.492-17.077 0-31.108-10.338-31.477-28.615h80.954c1.015-4.523 1.476-9.323 1.476-14.585 0-32.769-22.338-51.23-55.292-51.23-35.169 0-59.354 25.015-59.354 58.984 0 37.846 26.677 60.554 63.6 60.554 27.877 0 46.8-11.631 55.108-34.8l-27.323-10.8Zm-59.169-29.538c3.046-13.2 14.03-20.954 27.23-20.954 14.4 0 24.185 7.753 24.185 19.938l-.185 1.016h-51.23Zm195.784 75.23v-29.077h-67.477l65.631-63.876V56.953H592.8v27.692h63.415L590.769 148.8v27.692h107.723Zm93.877-45.692c-3.692 13.662-13.015 20.492-27.692 20.492-17.077 0-31.108-10.338-31.477-28.615h80.954c1.015-4.523 1.477-9.323 1.477-14.585 0-32.769-22.339-51.23-55.293-51.23-35.169 0-59.353 25.015-59.353 58.984 0 37.846 26.677 60.554 63.6 60.554 27.877 0 46.8-11.631 55.107-34.8l-27.323-10.8ZM733.2 101.262c3.046-13.2 14.031-20.954 27.231-20.954 14.4 0 24.184 7.753 24.184 19.938l-.184 1.016H733.2Z"/><path fill="#40AB5D" fill-rule="evenodd" d="M143.538 56.954h39.6v23.17h-39.6v-23.17Z" clip-rule="evenodd"/><path fill="url(#a)" fill-rule="evenodd" d="M143.538 89.077h39.6v23.169h-39.6v-23.17Z" clip-rule="evenodd"/><path fill="url(#b)" fill-rule="evenodd" d="M143.538 121.2h39.6v23.169h-39.6V121.2Z" clip-rule="evenodd"/><path fill="url(#c)" fill-rule="evenodd" d="M0 153.323h39.6v23.169H0v-23.169Z" clip-rule="evenodd"/><path fill="url(#d)" fill-rule="evenodd" d="M47.815 153.323h39.6v23.169h-39.6v-23.169Z" clip-rule="evenodd"/><path fill="url(#e)" fill-rule="evenodd" d="M95.723 153.323h39.6v23.169h-39.6v-23.169Z" clip-rule="evenodd"/><path fill="url(#f)" fill-rule="evenodd" d="M143.538 153.323h39.6v23.169h-39.6v-23.169Z" clip-rule="evenodd"/><path fill="url(#g)" fill-rule="evenodd" d="M95.723 121.2h39.6v23.169h-39.6V121.2Z" clip-rule="evenodd"/><path fill="url(#h)" fill-rule="evenodd" d="M47.815 121.2h39.6v23.169h-39.6V121.2Z" clip-rule="evenodd"/><path fill="url(#i)" fill-rule="evenodd" d="M47.815 89.077h39.6v23.169h-39.6v-23.17Z" clip-rule="evenodd"/><path fill="#000" d="M891.785 98.215v3.416h31.292v-9.139c0-20.492-12.831-35.354-34.339-35.354-13.846 0-23.63 6.739-28.707 17.908V57.138h-32.308v119.354h32.308V99.6c0-12.185 6.554-18.923 16.615-18.923 9.231.092 15.139 8.77 15.139 17.538Z"/><defs><linearGradient id="a" x1="163.533" x2="163.159" y1="112.446" y2="88.736" gradientUnits="userSpaceOnUse"><stop stop-color="#358C7B"/><stop offset=".526" stop-color="#33A65E"/></linearGradient><linearGradient id="b" x1="142.956" x2="183.739" y1="143.18" y2="122.4" gradientUnits="userSpaceOnUse"><stop stop-color="#222B90"/><stop offset="1" stop-color="#367B99"/></linearGradient><linearGradient id="c" x1=".007" x2="39.574" y1="164.916" y2="164.916" gradientUnits="userSpaceOnUse"><stop stop-color="#F90"/><stop offset="1" stop-color="#FF8000"/></linearGradient><linearGradient id="d" x1="47.859" x2="87.426" y1="164.916" y2="164.916" gradientUnits="userSpaceOnUse"><stop stop-color="#FF8000"/><stop offset="1" stop-color="#CC1953"/></linearGradient><linearGradient id="e" x1="95.711" x2="135.278" y1="164.916" y2="164.916" gradientUnits="userSpaceOnUse"><stop stop-color="#CC1953"/><stop offset="1" stop-color="#241284"/></linearGradient><linearGradient id="f" x1="143.516" x2="183.083" y1="164.916" y2="164.916" gradientUnits="userSpaceOnUse"><stop stop-color="#222B90"/><stop offset="1" stop-color="#3559A6"/></linearGradient><linearGradient id="g" x1="94.15" x2="136.84" y1="139.032" y2="126.548" gradientUnits="userSpaceOnUse"><stop stop-color="#CC1953"/><stop offset="1" stop-color="#241284"/></linearGradient><linearGradient id="h" x1="46.45" x2="88.834" y1="125.077" y2="140.503" gradientUnits="userSpaceOnUse"><stop offset=".003" stop-color="#FC0"/><stop offset="1" stop-color="#CE1938"/></linearGradient><linearGradient id="i" x1="51.185" x2="84.1" y1="85.476" y2="115.85" gradientUnits="userSpaceOnUse"><stop offset=".003" stop-color="#FFD100"/><stop offset="1" stop-color="#FD5A22"/></linearGradient></defs></svg>
